X: 1
T: The Battle Of The Somme
R: slip jig
M: 9/8
L: 1/8
K: Dmaj
A|:faf d3 dcd|edG B3A3|BGB A3f3|
faf e3A3|faf d3 dcd|edG B3A3|
BGB A3f3|1efe d3 d2A:|2efe d3d3||
|:dcd e3A3|efg faf d2d|fef g3A3|
faf e3 A3|faf d3 dcd|edG B3A3|
BGB A3f3|1efe d3 d3:|2efe d3d2A||


Tune 2923	Setting 16103

